X:1
T:Schwanengesang.D.957
T:Abschied
T:7. Abschied
T:Franz Schubert
T:Ludwig Rellstab
T:Schwanengesang (D.957)
T:OpenScore (CC0)
T:OpenScore (CC0)
T:OpenScore (CC0)
T:OpenScore (CC0)
T:OpenScore (CC0)
T:OpenScore (CC0)
T:OpenScore (CC0)
C:Franz Schubert
Z:Ludwig Rellstab
Z:OpenScore (CC0)
%%score 1 { 2 | ( 3 4 ) }
L:1/8
Q:1/4=150
M:4/4
K:Eb
V:1 treble nm="Voice"
V:2 treble nm="Piano"
V:3 bass 
V:4 bass 
V:1
"^Mässig geschwind" z8 | z8 | z8 | z8 | z8 | z8 | z8 | z4 z2 z!p! B | e6 z G | G2 F G A2 B c | %10
w: |||||||A-|de! du|mun- tre, du fröh- li- che|
 B4 z2 z!mf! G | B8- | B2 z2 z2!p! E2 | D2 B B D2 B B | E2 e e B2 z B | c2 f c B2 e B | %16
w: Stadt, A-|de!|_ Schon|schar- ret mein Röss- lein mit|lu- sti- gem Fuss; jetzt|nimm noch den letz- ten, den|
 A2 c B G2 z E | D2 B B D2 B B | E2 e e B2 z e | g2 e e d2 =B B | e2 c c G2 z c | e2 c c B2 G G | %22
w: schei- den- den Gruss! du|hast mich wohl nie- mals noch|trau- rig ge- seh'n, so|kann es auch jetzt nicht beim|Ab- schied ge- scheh'n, so|kann es auch jetzt nicht beim|
 c2 A A E2 z A | c6 z c | c2 G G A2 c c | c6 d2 | e8- | e2 z2 z4 | z8 | z8 | z8 | z8 | z8 | z8 | %34
w: Ab- schied ge- scheh'n. A-|de! du|mun- tre, du fröh- li- che|Stadt, A-|de!|_|||||||
 z4 z2 z E | c6 z A | c2 B A B2 A G | A4 z2 z c | e8- | e2 z2 z2 A2 | G2 B B G2 E E | %41
w: A-|de! ihr|Bäu- me, ihr Gär- ten so|grün, A-|de!|_ Nun|reit' ich am sil- ber- nen|
 A2 c e c2 z c | _d2 A A FA d f | e2 c c A2 z A | G2 B B G2 E E | A2 ce c2 z c | a2 f f =e2 c c | %47
w: Stro- me ent- lang, weit|schal- lend er- tö- * net mein|Ab- schieds- ge- sang; nie|habt ihr ein trau- ri- ges|Lied ge- * hört, so|wird euch auch kei- nes beim|
 f2 c A F2 z A | f2 _d d c2 A A | _d2 A F _D2 z d | f6 z f | f2 c c _d2 f f | f4 z2 e2 | c8- | %54
w: Schei- den be- scheert, so|wird euch auch kei- nes beim|Schei- den be- scheert. A-|de! Ihr|Bäu- me, ihr Gär- ten so|grün, A-|de!|
 c2 z2 z4 | z8 | z8 | z4 z2 z B | e6 z G | G2 F G A2 Bc | B4 z2 z G | B8- | B2 z2 z2 E2 | %63
w: _|||A-|de! ihr|freund- li- chen Mägd- lein *|dort, A-|de!|_ Was|
 D2 B B D2 B B | E2 e e B2 z B | c2 f c B2 e B | A2 c B G2 z E | D2 B2 D2 B B | E2 e e B2 z e | %69
w: schaut ihr aus blu- men- um-|duf- te- tem Haus mit|schel- mi- schen, lo- cken- den|Bli- cken her- aus? Wie|sonst, so grüss' ich und|schau- e mich um, doch|
 g3 e d2 =B B | e2 c2 G2 z c | e3 c B2 G G | c2 A2 E2 z A | c6 z c | c2 G G A2 c2 | c4 z2 d2 | %76
w: nim- mer wend' ich mein|Röss- lein um, doch|nim- mer wend' ich mein|Röss- lein um. A-|de! ihr|freund- li- chen Mägd- lein|dort, A-|
 e8- | e2 z2 z4 | z8 | z8 | z8 | z8 | z8 | z8 | z4 z2 z E | c6 c c | c2 B A B2 A G | A6 z c | e8- | %89
w: de!|_|||||||A-|de! Lie- be|Son- ne, so gehst du zur|Ruh, A-|de!|
 e2 z2 z2 A2 | G2 B B G2 E E | A2 ce c2 z c | _d2 A A FA d f | e2 c c A2 z A | G2 B B G2 E2 | %95
w: _ Nun|schim- mert der blin- ken- den|Ster- ne * Gold; wie|bin ich euch Stern- * lein am|Him- mel so hold; durch-|ziehn wir die Welt auch|
 A2 ce c2 c c | a2 f f =e2 c2 | f2 c A F2 A A | f2 _d d c2 A2 | _d2 A F _D2 z d | f6 f f | %101
w: weit und * breit, ihr gebt|ü- ber- all uns das|treu- e Ge- leit, ihr gebt|ü- ber- all uns das|treu- e Ge- leit. A-|de! Lie- be|
 f2 c c _d2 f f | f6 e2 | c8- | c2 z2 z4 | z8 | z8 | z4 z2 z B | e6 z G | G2 F G A2 B c | B6 z G | %111
w: Son- ne, so gehst du zur|Ruh, A-|de!|_|||A-|de! Du|schim- mern- des Fen- ster- lein|hell, A-|
 B8- | B2 z2 z2 E2 | D2 B B D2 B B | E2 e e B2 z B | c2 f c B2 e B | A2 c B G2 z E | %117
w: de!|_ Du|glän- zest so trau- lich mit|däm- mern- dem Schein, und|la- dest so freund- lich ins|Hütt- chen uns ein. Vor-|
 D2 B B D2 B B | E2 e2 B2 z e | g2 e e d2 =B B | e2 c2 G2 z c | e2 c c B2 G G | c2 A2 E2 z A | %123
w: ü- ber, ach, ritt ich so|man- ches- mal und|wär' es denn heu- te zum|letz- ten mal, und|wär' es denn heu- te zum|letz- ten mal? A-|
 c6 z c | c2 G G A2 c c | c4 z2 d2 | e8- | e2 z2 z4 | z8 | z8 | z8 | z8 | z4 z2 z!p! _c | %133
w: de! Du|schim- mern- des Fen- ster- lein|hell, A-|de!|_|||||A-|
 e6 z!>(! _c | _c2 _d e d2 c B!>)! |!pp! _c4 z2 z!p! e | _g8- | g2 z2 z2!>(! _c2 | %138
w: de! Ihr|Ster- ne ver- hül- let euch|grau! A-|de!|_ des|
 B2 _d d B2 _G G | _c2 e _g e2!>)! z e | _f2 _c c af c A | _G2 _c e c2 z2 | z8 | z4 z2 e e | %144
w: Fen- ster- lein trü- bes ver-|schim- mern- des Licht er-|setzt ihr un- zäh- * li- gen|Ster- ne mir nicht.||Darf ich|
 (e2 =G) G G2 e _f | (e2 A) A A2 z e | =d2 f2 d2 B B | e3 _g e2 e e | =g2 e2 d2 =B B | %149
w: hier _ nicht wei- len, muss|hier _ vor- bei, was|hilft es, folgt ihr mir|noch so treu! darf ich|hier nicht wei- len, muss|
 e2 c2 G2 z c | e2 c2 B2 G G | c2 A2 E2 z A | c6 z c | c2 G G A2 c c | c6 d2 | e8- | e2 z2 z4 | %157
w: hier vor- bei, was|hilft es, folgt ihr mir|noch so treu! A-|de! Ihr|Ster- ne ver- hül- let euch|grau! A-|de!|_|
 z8 | z8 | z8 | z8 | z8 | z8 | z8 | z8 | z8 | z8 |] %167
w: ||||||||||
V:2
!p! .E.[G,B,].G.[G,B,] .E.[G,B,].G.[G,B,] | .E.[G,B,].G.[G,B,] [G,B,F][G,B,E][G,B,D][G,B,E] | %2
 F[A,C]A[A,C] F[A,C]!mf!!>![Fcf]!mp![Fce] |!mp! d!p![FB]c[EA] B[DF]A[A,DF] | %4
 E[G,B,]G[G,B,] E[G,B,]G[G,B,] | E[G,B,]G[G,B,] [G,B,F][G,B,=E][G,B,D][G,B,E] | %6
 F[A,C]A[A,C] F[A,C]!mf! !>![Aca]!mp![Acf] |!mp! e!p![FA]d[FA] c[FA]d[FA] | %8
!pp! e[GB]B[EG] G[B,E]E[G,B,] | .E.[G,B,].E.[B,_D] .E.[A,C].E.[F,A,] | %10
!<(! E[G,B,]G[B,E] B[EG]e[GB]!<)! |!>(! g[Be]e[GB] f[Ac]d[FB]!>)! |!p! e[GB]B[EG] G[B,E]E[G,B,] | %13
 .F.[A,B,].D.[A,B,] .F.[A,B,].D.[A,B,] | G[G,B,]E[G,B,] G[G,B,]E[G,B,] | %15
 A[A,C]F[A,C] G[G,B,]E[G,B,] | F[A,B,]D[F,B,] E[G,B,]!<(!G[G,B,] | F[A,B,]D[A,B,] F[A,B,]D[A,B,] | %18
 G[G,B,]E[G,B,]!<)! G[G,B,]E[G,B,] | E[G,C]G[G,E] G[G,F]G[G,D] | G[G,E]c[EG] e[EG]!>(!c[EG] | %21
 C[E,A,]E[E,C] E[E,_D]E[E,B,] | E[E,C]A[CE] c[CE]!>)!A[CE] | F[A,C]=E[G,C] F[A,C]G[CE] | %24
 A"_cresc."[CF]c[=EG] c[FA]=e[Gc] |!>(! f[Ac]=e[Gc] f[Ac]g[Bd]!>)! | _e[GB]B[EG] G[B,E]E[G,B,] | %27
 E[G,B,]G[G,B,] E[G,B,]G[G,B,] | E[G,B,]G[G,B,] [G,B,F][G,B,E][G,B,D][G,B,E] | %29
 F[A,C]A[A,C] F[A,C]!mp! !>![Fcf]!p![Fce] |!p! d!pp![FB]c[EA] B[DF]A[A,DF] | %31
 E[G,B,]G[G,B,] E[G,B,]G[G,B,] | E[G,B,]G[G,B,] [G,B,F][G,B,=E][G,B,D][G,B,E] | %33
 F[F,A,]A[A,F] _d[FA] [Adf][Ada] | [ce]E[B_d]E [Ac]E[GB]E | A[CE]c[CE] A[CE]c[CE] | %36
 A[CE]c[CE] G[_DE]B[DE] | A[CE]c[CE] A[CE]c[CE] | A[CE]c[CE] G[_DE]B[DE] | %39
 A[CE]c[CE]"_cresc." A[CE]E[A,C] | E[E,_D]E[E,B,] E[E,D]E[E,B,] | E[E,C]E[E,A,] E[E,C]E[E,A,] | %42
 F[F,A,]_D[F,A,] F[F,A,]D[F,A,] | E[E,C]E[E,A,] E[E,C]E[E,A,] | E[E,_D]E[E,B,] E[E,D]E[E,B,] | %45
 E[E,C]E[E,A,] E[E,C]E[E,A,] | c[CF]c[CA] c[CB]c[CG] | c[CA]f[Ac] a[Ac]f[Ac] | %48
 A[A,_D]A[A,F] A[A,_G]A[A,E] | A[A,F]_d[FA] f[FA]d[FA] | B[_DF]=A[CF] B[DF]c[FA] | %51
 _d[FB]f[=Ac] f[Bd]=a[cf] | b[_df]=a[cf] b[df]c'[eg] | _a[ce]e[Ac] c[EA]A[CE] | %54
 A[CE]c[CE] A[CE]c[CE] | A[CE]c[CE] [CEB][CEA][CEG][CEA] |!<(! A[CF]c[CF] A[CF] [Aca][Acf] | %57
 e[FA]d[FA] c[FA]!<)!!mf!d[FA] | e[GB]B[EG] G[B,E]E[G,B,] | E[G,B,]E[B,_D] E[A,C]E[F,A,] | %60
 E[G,B,]G[B,E] B[EG]e[GB] | g[Be]e[GB] f[Ac]d[FB] |!>(! e[GB]B[EG] G[B,E]!>)!!mp!E[G,B,] | %63
 F[A,B,]D[A,B,] F[A,B,]D[A,B,] | G[G,B,]E[G,B,] G[G,B,]E[G,B,] | A[A,C]F[A,C] G[G,B,]E[G,B,] | %66
 F[A,B,]D[F,B,] E[G,B,]"_cresc."G[G,B,] | F[A,B,]D[A,B,] F[A,B,]D[A,B,] | %68
 G[G,B,]E[G,B,] G[G,B,]E[G,B,] | E[G,C]G[G,E] G[G,F]G[G,D] | G[G,E]c[EG] e[EG]c[EG] | %71
 C[E,A,]E[E,A,] E[E,_D]E[E,B,] | E[E,C]A[CE] c[CE]A[CE] | F[A,C]=E[G,C]"_dim." F[A,C]G[CE] | %74
 A[CF]c[=EG] c[FA]=e[Gc] | f[Ac]=e[Gc] f[Ac]g[Bd] | _e[GB]B[EG] G[B,E]E[G,B,] | %77
 E[G,B,]G[G,B,] E[G,B,]G[G,B,] | E[G,B,]G[G,B,] [G,B,F][G,B,E][G,B,D][G,B,E] | %79
 F[A,C]A[A,C] F[A,C]!mf! !>![Fcf]!mp![Fce] |!mp! d[FB]c[EA] B[DF]A[A,DF] | %81
 E[G,B,]G[G,B,] E[G,B,][GB][G,B,] | E[G,B,]G[G,B,] [G,B,F][G,B,=E][G,B,D][G,B,E] | %83
 F[F,A,]A[A,F] _d[FA] !>![Adf][Ada] | [ce]E[B_d]E [Ac]E[GB]E | A[CE]c[CE] A[CE]c[CE] | %86
 A[CE]c[CE] G[_DE]B[DE] |!<(! A[CE]c[CE] A[CE]c!<)!!mf![CE] | A[CE]c[CE] G[_DE]B[DE] | %89
 A[CE]c[CE] A[CE]!mp!E[A,C] | E[E,_D]E[E,B,] E[E,D]E[E,B,] | E[E,C]E[E,A,] E[E,C]E[E,A,] | %92
 F[F,A,]_D[F,A,] F[F,A,]D[F,A,] | E[E,C]E[E,A,] E[E,C]E[E,A,] | E[E,_D]E[E,B,] E[E,D]E[E,B,] | %95
 E[E,C]E[E,A,] E!<(![E,C]E[E,C] | c[CF]c[CA] c[CB]c[CG] | c[CA]f[Ac] a!<)![Ac]!>(!f[Ac] | %98
 A[A,_D]A[A,F] A[A,_G]A[A,E] | A[A,F]_d[FA] f[FA]d!>)![FA] | B!>(![_DF]=A[CF] B[DF]!>)!!p!c[FA] | %101
 _d[FB]f[=Ac] f[Bd]=a[cf] | b[_df]=a[cf] b[df]c'[eg] | _a[ce]e[Ac] c[EA]A[CE] | %104
 A[CE]c[CE] A[CE]c[CE] | A[CE]c[CE] [CEB][CEA][CEG][CEA] | A[CF]c[CF] A[CF]!mf! !>![Aca]!mp![Acf] | %107
!mp! e[FA]d[FA] c[FA]d[FA] | e[GB]B[EG] G[B,E]E[G,B,] | E[G,B,]E[B,_D] E[A,C]E[F,A,] | %110
 E[G,B,]G[B,E] B[EG]e[GB] | g[Be]e[GB] f[Ac]d[FB] | e[GB]B[EG] G[B,E]E[G,B,] | %113
 F[A,B,]D[A,B,] F[A,B,]D[A,B,] | G[G,B,]E[G,B,] G[G,B,]E[G,B,] | A[A,C]F[A,C] G[G,B,]E[G,B,] | %116
 F[A,B,]D[F,B,] E[G,B,]G[G,B,] | F[A,B,]D[A,B,] F[A,B,]D[A,B,] | G[G,B,]E[G,B,] G[G,B,]E[G,B,] | %119
 E[G,C]G[G,E] G[G,F]G[G,D] | G[G,E]c[EG] e[EG]!<(!c[EG] | C[E,A,]E[E,C] E[E,_D]E[E,B,] | %122
 E[E,C]A[CE] c[CE]!<)!A[CE] | F[A,C]!>(!=E[G,C] F[A,C]G[CE] | A[CF]c[=EG] c[FA]=e[Gc] | %125
 f[Ac]!>)!=e[Gc]!mf! f[Ac]!mf!g[Bd] | _e[GB]B[EG] G[B,E]E[G,B,] | E[G,B,]G[G,B,] E[G,B,]G[G,B,] | %128
!>(! E[G,B,]G[G,B,] [G,B,F][G,B,E][G,B,D][G,B,E] | E[_G,B,]_G[G,B,] E[G,B,]G[G,B,] | %130
 E[_G,B,]_G[G,B,] [G,B,F][G,B,E][G,B,D][G,B,E]!>)! | E[_G,_C]_G[G,C] E[G,C]G[G,C] | %132
 E[_G,_C]_G[G,C] [G,CF][G,CE][G,CD][G,CE] | E[_G,_C]_G[G,C] E[G,C]G[G,C] | %134
 E[_G,_C]_G[G,C] _F[G,_D]G[G,D] | E[_G,_C]_G[G,C] E[G,C]G[G,C] | E[_G,_C]_G[G,C] _F[G,B,]G[G,B,] | %137
 E[_G,_C]_G[G,C] E[G,C]G[G,C] | _G[_G,_F]G[G,_D] G[G,F]G[G,D] | _G[_G,E]G[G,_C] G[G,E]G[G,C] | %140
 A[A,_C]_F[A,C] A[A,C]F[A,C] | _G[_G,_C]E[G,C] G[G,C]E[G,C] | A[A,_C]_F[A,C] _c[CF]A[CF] | %143
 _G[_G,_C]E[G,C]!<(! G[G,C]E[G,C] | =G[=G,_D]E[G,D] G[G,D]E[G,D] | A[A,_C]E[A,C] A[A,C]E[A,C] | %146
 A[A,B,]F!<)![A,B,]!mp! A[A,B,]F[A,B,] | _G[_G,B,]E[G,B,] G[G,B,]E[G,B,] | %148
!<(! E[=G,B,]=G[G,E] G[G,F]G[G,D] | G[G,E]c[EG] e[EG]c[EG] | C[E,A,]E[E,C] E[E,_D]E[E,B,] | %151
 E[E,C]A[CE] c[CE]A!<)!!mf![CE] | F[A,C]!<(!=E[G,C] F[A,C]G[CE] | A[CF]c[=EG] c[FA]=e[Gc] | %154
 f[Ac]=e[Gc]!<)!!f! f[Ac]g[Bd] | _e[GB]B[EG]!f! G[B,E]!mf!E[G,B,] | %156
!mf! E!>(![G,B,]G[G,B,] E[G,B,]G[G,B,] | E[G,B,]G[G,B,] [G,B,F][G,B,E][G,B,D][G,B,E] | %158
 F[A,D]B[A,D] F[A,D]B[A,D] | F[A,D]B[A,D] [A,DA][A,DG][A,DF][A,DG]!>)! | %160
!pp! E!>(![G,B,]G[G,B,] E[G,B,]G[G,B,] | E[G,B,]G[G,B,] [G,B,F][G,B,E][G,B,D][G,B,E]!>)! | %162
!pp! F!>(![A,D]B[A,D] F[A,D]B[A,D] | F[A,D]B[A,D] [A,DA][A,DG][A,DF][A,DG]!>)! | %164
!pp! E[E,G,]B,[E,G,] E[E,G,]B,[E,G,] | [E,G,E]2 z2 [B,G]2 z2 | [G,E]4 z4 |] %167
V:3
 E,, z E, z E,, z E, z | E,, z E, z z2 .E,,.E,, | A,,, z A,, z A,,, z [A,,,A,,][=A,,,=A,,] | %3
 B,,, z B,, z B,,, z B,,,B,,, | E,, z E, z E,, z E, z | E,, z E, z z2 C,,C,, | %6
 F,,, z F,, z F,,, z [F,,,F,,][A,,,A,,] | B,,, z B,, z B,,, z B,,B,, | E,, z E, z z2 E,,E,, | %9
 E,, z E, z E,, z E, z | E,, z E, z z2 B,,,B,,, | B,,, z B,, z B,,, z B,, z | %12
 E,, z E, z z2 B,,,B,,, | B,,, z B,, z B,,, z B,, z | B,,, z B,, z B,,, z B,, z | %15
 B,,, z B,, z B,,, z B,, z | B,,, z B,, z E,, z B,,,B,,, | B,,, z B,, z B,,, z B,, z | %18
 E,, z B,, z E,, z B,, z | C,, z C, z G,,, z G,, z | C,, z [C,G,][C,G,] [C,G,] z z2 | %21
 A,,, z A,, z E,, z E, z | A,,, z [A,,E,][A,,E,] [A,,E,] z z2 | %23
 [F,,C,] z [C,,C,][C,,C,] [F,,C,] z [C,,C,][C,,C,] | %24
 [F,,C,] z [C,,C,][C,,C,] [F,,C,] z [C,,C,][C,,C,] | %25
 [F,,C,] z [C,,C,][C,,C,] [F,,C,] z [B,,,B,,][B,,,B,,] | E,, z E, z z2 E,,E,, | %27
 E,, z E, z E,, z E, z | E,, z E, z z2 E,,E,, | A,,, z A,, z A,,, z [A,,,A,,][=A,,,=A,,] | %30
 B,,, z B,, z B,,, z B,,B,, | E,, z E, z E,, z E, z | E,, z E, z z2 C,,C,, | %33
 _D,, z _D, z D,, z!mp! !>![D,A,_D]!p![F,A,D] |!p! [E,A,C]!pp! z [E,B,_D] z [E,A,C] z [E,G,B,] z | %35
 [A,,E,A,] z A, z z2 A,,A,, | A,, z E, z A,, z E, z | A,, z E, z z2 A,,A,, | %38
 A,, z E, z A,, z E, z | A,, z E, z z2 A,,A,, | E,, z E, z E,, z E, z | A,,, z A,, z A,,, z A,, z | %42
 A,,, z A,, z A,,, z A,, z | A,,, z A,, z A,,, z A,, z | E,, z E, z E,, z E, z | %45
 A,,, z A,, z A,,, z A,, z | F,, z F, z C,, z C, z | F,, z [F,C][F,C] [F,C] z z2 | %48
 _D,, z _D, z A,,, z A,, z | _D,, z [_D,A,][D,A,] [D,A,] z z2 | %50
 [B,,F,] z [F,,F,][F,,F,] [B,,F,] z [F,,F,][F,,F,] | %51
 [B,,F,] z [F,,F,][F,,F,] [B,,F,] z [F,,F,][F,,F,] | %52
 [B,,F,] z [F,,F,][F,,F,] [B,,F,] z [E,,E,][E,,E,] | [A,,E,] z A, z z4 | A,, z A, z A,, z A, z | %55
 A,, z A, z z2 A,,A,, | F,, z F, z F,, z [F,,,F,,][A,,,A,,] | B,,, z B,, z B,,, z B,, z | %58
 E,, z E, z z2 E,,E,, | E,, z E, z E,, z E, z | E,, z E, z z2 B,,,B,,, | %61
 B,,, z B,, z B,,, z B,, z | E,, z E, z z2 B,,,B,,, | B,,, z B,, z B,,, z B,, z | %64
 B,,, z B,, z B,,, z B,, z | B,,, z B,, z B,,, z B,, z | B,,, z B,, z E,, z B,,,B,,, | %67
 B,,, z B,, z B,,, z B,, z | E,, z B,, z E,, z B,, z | C,, z C, z G,,, z G,, z | %70
 C,, z [C,G,][C,G,] [C,G,] z z2 | A,,, z A,, z E,, z E, z | A,,, z [A,,E,][A,,E,] [A,,E,] z z2 | %73
 [F,,C,] z [C,,C,][C,,C,] [F,,C,] z [C,,C,][C,,C,] | %74
 [F,,C,] z [C,,C,][C,,C,] [F,,C,] z [C,,C,][C,,C,] | %75
 [F,,C,] z [C,,C,][C,,C,] [F,,C,] z [B,,,B,,] z | E,, z E, z z2 E,,E,, | E,, z E, z E,, z E, z | %78
 E,, z E, z z2 E,,E,, | A,,, z A,, z A,,, z [A,,,A,,][=A,,,=A,,] | B,,, z B,, z B,,, z B,, z | %81
 E,, z E, z E,, z E, z | E,, z E, z z2 C,,C,, | _D,, z _D, z D,, z!mf! [D,A,_D]!mp![F,A,D] | %84
!mp! [E,A,C] z [E,B,_D] z [E,A,C] z [E,G,B,] z | [A,,E,A,] z A, z z2 A,,A,, | %86
 A,, z E, z A,, z E, z | A,, z E, z z2 A,,A,, | A,, z E, z A,, z E, z | A,, z E, z z2 A,,A,, | %90
 E,, z E, z E,, z E, z | A,,, z A,, z A,,, z A,, z | A,,, z A,, z A,,, z A,, z | %93
 A,,, z A,, z A,,, z A,, z | E,, z E, z E,, z E, z | A,,, z A,, z A,,, z A,, z | %96
 F,, z F, z C,, z C, z | F,, z [F,C][F,C] [F,C] z z2 | _D,, z _D, z A,,, z A,, z | %99
 _D,, z [_D,A,][D,A,] [D,A,]2 z2 | [B,,F,] z [F,,F,][F,,F,] [B,,F,] z [F,,F,][F,,F,] | %101
 [B,,F,] z [F,,F,][F,,F,] [B,,F,] z [F,,F,][F,,F,] | %102
 [B,,F,] z [F,,F,][F,,F,] [B,,F,] z [E,,E,][E,,E,] | [A,,E,] z A, z z2 A,,A,, | %104
 A,, z A, z A,, z A, z | A,, z A, z z2 A,,A,, | F,, z F, z F,, z [F,,,F,,][A,,,A,,] | %107
 B,,, z B,, z B,,, z B,, z | E,, z E, z z2 E,,E,, | E,, z E, z E,, z E, z | %110
 E,, z E, z z2 B,,,B,,, | B,,, z B,, z B,,, z B,, z | E,, z E, z z2 B,,,B,,, | %113
 B,,, z B,, z B,,, z B,, z | B,,, z B,, z B,,, z B,, z | B,,, z B,, z B,,, z B,, z | %116
 B,,, z B,, z E,, z B,,,B,,, | B,,, z B,, z B,,, z B,, z | E,, z B,, z E,, z B,, z | %119
 C,, z C, z G,,, z G,, z | C,, z [C,G,][C,G,] [C,G,] z z2 | A,,, z A,, z E,, z E, z | %122
 A,,, z [A,,E,][A,,E,] [A,,E,] z z2 | [F,,C,] z [C,,C,][C,,C,] [F,,C,] z [C,,C,][C,,C,] | %124
 [F,,C,] z [C,,C,][C,,C,] [F,,C,] z [C,,C,][C,,C,] | %125
 [F,,C,] z [C,,C,][C,,C,] [F,,C,] z [B,,,B,,] z | E,, z E, z z2 E,,E,, | E,, z E, z E,, z E, z | %128
 E,, z E, z z2 E,,E,, |"^decresc." E,, z E, z E,, z E, z | E,, z E, z z2 E,,E,, | %131
!pp! _C,, z _C, z C,, z C, z | _C,, z _C, z z2 C,,C,, | _C,, z _C, z z2 C,,C,, | %134
 _C,, z _C, z C,, z C, z | _C,, z _C, z z2 C,,C,, | _C,, z _C, z C,, z C, z | %137
 _C,, z _C, z z2 _G,,,G,,, | _G,,, z _G,, z G,,, z G,, z | _C,, z _C, z C,, z C, z | %140
 _C,, z _C, z C,, z C, z | _C,, z _C, z C,, z C, z | _C,, z _C, z C,, z C, z | %143
 _C,, z _C, z C,, z E,,E,, | E,, z E, z E,, z E, z | A,, z E, z A,, z A,,,A,,, | %146
 B,,, z B,, z B,,, z B,, z | E,, z E, z E,, z E, z | E,, z E, z G,,, z G,, z | %149
 C,, z [C,G,][C,G,] [C,G,] z z2 | A,,, z A,, z E,, z E, z | A,,, z [A,,E,][A,,E,] [A,,E,] z z2 | %152
 [F,,C,] z [C,,C,][C,,C,] [F,,C,] z [C,,C,][C,,C,] | %153
 [F,,C,] z [C,,C,][C,,C,] [F,,C,] z [C,,C,][C,,C,] | %154
 [F,,C,] z [C,,C,][C,,C,] [F,,C,] z [B,,,B,,][B,,,B,,] | x4 z2 x2 | E,, z E, z E,, z E, z | %157
 x4 z2 x2 | B,,, z B,, z B,,, z B,, z | B,,, z B,, z z2 B,,,B,,, | E,, z E, z E,, z E, z | %161
 E,, z E, z z2 E,,E,, | B,,, z B,, z B,,, z B,, z | B,,, z B,, z z2 B,,,B,,, | E,,2 z2 E,,2 z2 | %165
 E,,2 z2 [E,,B,,E,]2 z2 | [E,,B,,E,]4 z4 |] %167
V:4
 x8 | x8 | x8 | x8 | x8 | x8 | x8 | x8 | x8 | x8 | x8 | x8 | x8 | x8 | x8 | x8 | x8 | x8 | x8 | %19
 x8 | x8 | x8 | x8 | x8 | x8 | x8 | x8 | x8 | x8 | x8 | x8 | x8 | x8 | x8 | x8 | x8 | x8 | x8 | %38
 x8 | x8 | x8 | x8 | x8 | x8 | x8 | x8 | x8 | x8 | x8 | x8 | x8 | x8 | x8 | x8 | x8 | x8 | x8 | %57
 x8 | x8 | x8 | x8 | x8 | x8 | x8 | x8 | x8 | x8 | x8 | x8 | x8 | x8 | x8 | x8 | x8 | x8 | x8 | %76
 x8 | x8 | x8 | x8 | x8 | x8 | x8 | x8 | x8 | x8 | x8 | x8 | x8 | x8 | x8 | x8 | x8 | x8 | x8 | %95
 x8 | x8 | x8 | x8 | x8 | x8 | x8 | x8 | x8 | x8 | x8 | x8 | x8 | x8 | x8 | x8 | x8 | x8 | x8 | %114
 x8 | x8 | x8 | x8 | x8 | x8 | x8 | x8 | x8 | x8 | x8 | x8 | x8 | x8 | x8 | x8 | x8 | x8 | x8 | %133
 x8 | x8 | x8 | x8 | x8 | x8 | x8 | x8 | x8 | x8 | x8 | x8 | x8 | x8 | x8 | x8 | x8 | x8 | x8 | %152
 x8 | x8 | x8 | E,, z E, z x2 E,,E,, | x8 | E,, z E, z x2 E,,E,, | x8 | x8 | x8 | x8 | x8 | x8 | %164
 x8 | x8 | x8 |] %167

